X:272
T:Fyket, The
R:Reel
B:The Athole Collection
M:C|
L:1/8
K:A
=g|fAeA aAe=g|fAeA B=GG=g|fAeA aAe=g|fde=c B=GG=g|fAeA aAe=g|
fAeA B=GG=g|fAeA ceaf|=gde=c B=GG||g|f/^g/a ea cAA=g|f/^g/a e=g B=GGg|
f/^g/a ea ceaf|=gde=c B=GGg|f/^g/a ea cAA=g|f/^g/a e=g B=GGg|faea ceaf|
=gbeg B=GG||

